dist/svgs/devui-icons/op/drag.svg

<?xml version="1.0" encoding="UTF-8"?>
<svg width="16px" height="16px" viewBox="0 0 16 16" version="1.1" xmlns="http://www.w3.org/2000/svg" xmlns:xlink="http://www.w3.org/1999/xlink">
    <title>操作/draggable_big</title>
    <desc>Created with Sketch.</desc>
    <g id="操作/draggable_big" stroke="none" stroke-width="1" fill="none" fill-rule="evenodd">
        <g id="形状" fill="#5170FF" fill-rule="nonzero">
            <path d="M5.5,0 C6.32842712,-1.3527075e-16 7,0.596953667 7,1.33333333 C7,2.069713 6.32842712,2.66666667 5.5,2.66666667 C4.67157288,2.66666667 4,2.069713 4,1.33333333 C4,0.596953667 4.67157288,1.3527075e-16 5.5,0 Z M5.5,4.44444444 C6.32842712,4.44444444 7,5.04139811 7,5.77777778 C7,6.51415744 6.32842712,7.11111111 5.5,7.11111111 C4.67157288,7.11111111 4,6.51415744 4,5.77777778 C4,5.04139811 4.67157288,4.44444444 5.5,4.44444444 Z M5.5,8.88888889 C6.32842712,8.88888889 7,9.48584256 7,10.2222222 C7,10.9586019 6.32842712,11.5555556 5.5,11.5555556 C4.67157288,11.5555556 4,10.9586019 4,10.2222222 C4,9.48584256 4.67157288,8.88888889 5.5,8.88888889 Z M5.5,13.3333333 C6.32842712,13.3333333 7,13.930287 7,14.6666667 C7,15.4030463 6.32842712,16 5.5,16 C4.67157288,16 4,15.4030463 4,14.6666667 C4,13.930287 4.67157288,13.3333333 5.5,13.3333333 Z M10.5,0 C11.3284271,-1.3527075e-16 12,0.596953667 12,1.33333333 C12,2.069713 11.3284271,2.66666667 10.5,2.66666667 C9.67157288,2.66666667 9,2.069713 9,1.33333333 C9,0.596953667 9.67157288,1.3527075e-16 10.5,0 Z M10.5,4.44444444 C11.3284271,4.44444444 12,5.04139811 12,5.77777778 C12,6.51415744 11.3284271,7.11111111 10.5,7.11111111 C9.67157288,7.11111111 9,6.51415744 9,5.77777778 C9,5.04139811 9.67157288,4.44444444 10.5,4.44444444 Z M10.5,8.88888889 C11.3284271,8.88888889 12,9.48584256 12,10.2222222 C12,10.9586019 11.3284271,11.5555556 10.5,11.5555556 C9.67157288,11.5555556 9,10.9586019 9,10.2222222 C9,9.48584256 9.67157288,8.88888889 10.5,8.88888889 Z M10.5,13.3333333 C11.3284271,13.3333333 12,13.930287 12,14.6666667 C12,15.4030463 11.3284271,16 10.5,16 C9.67157288,16 9,15.4030463 9,14.6666667 C9,13.930287 9.67157288,13.3333333 10.5,13.3333333 Z"></path>
        </g>
    </g>
</svg>

<svg xmlns="http://www.w3.org/2000/svg" viewBox="0 0 16 16"><path d="M5.5 0C6.328 0 7 .597 7 1.333c0 .737-.672 1.334-1.5 1.334S4 2.07 4 1.333C4 .597 4.672 0 5.5 0zm0 4.444c.828 0 1.5.597 1.5 1.334 0 .736-.672 1.333-1.5 1.333S4 6.514 4 5.778c0-.737.672-1.334 1.5-1.334zm0 4.445c.828 0 1.5.597 1.5 1.333 0 .737-.672 1.334-1.5 1.334S4 10.959 4 10.222c0-.736.672-1.333 1.5-1.333zm0 4.444c.828 0 1.5.597 1.5 1.334C7 15.403 6.328 16 5.5 16S4 15.403 4 14.667c0-.737.672-1.334 1.5-1.334zM10.5 0c.828 0 1.5.597 1.5 1.333 0 .737-.672 1.334-1.5 1.334S9 2.07 9 1.333C9 .597 9.672 0 10.5 0zm0 4.444c.828 0 1.5.597 1.5 1.334 0 .736-.672 1.333-1.5 1.333S9 6.514 9 5.778c0-.737.672-1.334 1.5-1.334zm0 4.445c.828 0 1.5.597 1.5 1.333 0 .737-.672 1.334-1.5 1.334S9 10.959 9 10.222c0-.736.672-1.333 1.5-1.333zm0 4.444c.828 0 1.5.597 1.5 1.334 0 .736-.672 1.333-1.5 1.333S9 15.403 9 14.667c0-.737.672-1.334 1.5-1.334z"/></svg>
